dist/svgs/quote.svg

<svg xmlns="http://www.w3.org/2000/svg" viewBox="0 0 512 512"><path d="M9 245q0-38 14.5-71.5T63 115t59-39.5T194 61v61q-26 0-48 10t-39 26.5-26.5 39T71 245h123v185H9V245zm492-123q-26 0-48 10t-39 26.5-26.5 39T378 245h123v185H317V245q0-38 14.5-71.5T371 115t58.5-39.5T501 61v61z"/></svg>

<?xml version="1.0" encoding="UTF-8" standalone="no"?><svg   xmlns:svg="http://www.w3.org/2000/svg"   xmlns="http://www.w3.org/2000/svg"   version="1.1"   width="512"   height="512"   viewBox="0 0 512 512">  <path     d="M9 245Q9 207 23.5 173.5T63 115T122 75.5T194 61V122Q168 122 146 132T107 158.5T80.5 197.5T71 245H194V430H9V245zM501 122Q475 122 453 132T414 158.5T387.5 197.5T378 245H501V430H317V245Q317 207 331.5 173.5T371 115T429.5 75.5T501 61V122z"     id="quote" /></svg>
